X: 206
T: Dinah
B: canberra pickers and fiddlers
B: old time tunes update
B: tunes
M:4/4
L:1/4
Q: 1/4=100
K:A
V:1 
e|"A"aa "D"a/2b/2a/2f/2|"A/c"ec -"E7/b"ce|"A"aa a/2b/2a/2e/2|\
"D"fe/2f/2 -"E7"f/2e/2f/2g/2|
"A"aa a/2b/2a/2f/2|"A"ec c/2B/2A|"B7"B/2A/2B/2A/2 "E7"cB|"A"A3:|
e|"A"Ac A/2B/2c/2d/2|"A"ef/2e/2 c/2B/2A|"A"Ac A/2B/2c/2d/2|"D"AF -"E7"FE|
"A"Ac A/2B/2c/2d/2|"A"ef/2e/2 c/2B/2A|"B7"B/2A/2B/2A/2 "E7"cB|"A"A3:|
% abcbook-tune_id 67a7d9ecde01693388af0840
% abcbook-tune_composer_id 
% abcbook-link-0 https://www.youtube.com/watch?v=UXac82EVYaM
% abcbook-link-title-0 Dinah
% abcbook-boost 0
% abcbook-difficulty 0
% abcbook-tags old time tunes
% abcbook-tablature 
% abcbook-transpose -2
% abcbook-tuning GDGD
% abcbook-lastupdated 1739161440734
% abcbook-src-url 
% abcbook-soundfonts 
% abcbook-repeats 1
%%MIDI transpose -2
% Nottingham Music Database
% Titles One title
% Transcriptions Only 1 transcription
% Movement Has lots of stepwise movement
% Movement Has some stepwise movement
% Mode major
% Key A
% Time_signature 4/4
% Text Has source text
% Has_accompaniment_chords Has chords

